assets/logo.svg

<svg xmlns="http://www.w3.org/2000/svg" xmlns:xlink="http://www.w3.org/1999/xlink" width="40" zoomAndPan="magnify" viewBox="0 0 30 33.749998" height="45" preserveAspectRatio="xMidYMid meet" version="1.0"><defs><clipPath id="id1"><path d="M 0.109375 0 L 23 0 L 23 33.5 L 0.109375 33.5 Z M 0.109375 0 " clip-rule="nonzero"/></clipPath><clipPath id="id2"><path d="M 0.109375 4 L 25 4 L 25 24 L 0.109375 24 Z M 0.109375 4 " clip-rule="nonzero"/></clipPath><clipPath id="id3"><path d="M 0.109375 8 L 29 8 L 29 33.5 L 0.109375 33.5 Z M 0.109375 8 " clip-rule="nonzero"/></clipPath><clipPath id="id4"><path d="M 3 5 L 29.890625 5 L 29.890625 33.5 L 3 33.5 Z M 3 5 " clip-rule="nonzero"/></clipPath><clipPath id="id5"><path d="M 0.109375 0 L 29.890625 0 L 29.890625 20 L 0.109375 20 Z M 0.109375 0 " clip-rule="nonzero"/></clipPath><clipPath id="id6"><path d="M 9 0 L 29.890625 0 L 29.890625 30 L 9 30 Z M 9 0 " clip-rule="nonzero"/></clipPath></defs><g clip-path="url(#id1)"><path stroke-linecap="round" transform="matrix(0.650075, -2.175577, 2.139964, 0.639434, 5.46208, 21.854125)" fill="none" stroke-linejoin="miter" d="M 0.500545 0.00074297 L 6.387606 -0.000571882 " stroke="#ffffff" stroke-width="1" stroke-opacity="1" stroke-miterlimit="4"/></g><g clip-path="url(#id2)"><path stroke-linecap="round" transform="matrix(-1.49628, -0.267645, 0.262177, -1.465707, 17.011091, 14.734585)" fill="none" stroke-linejoin="miter" d="M 0.500705 -0.000674889 L 5.86829 -0.0000675599 " stroke="#ffffff" stroke-width="1" stroke-opacity="1" stroke-miterlimit="4"/></g><g clip-path="url(#id3)"><path stroke-linecap="round" transform="matrix(-2.030413, -0.834256, 0.848825, -2.06587, 16.892595, 25.371063)" fill="none" stroke-linejoin="miter" d="M 0.499501 0.000593505 L 5.266742 0.00033251 " stroke="#ffffff" stroke-width="1" stroke-opacity="1" stroke-miterlimit="4"/></g><g clip-path="url(#id4)"><path stroke-linecap="round" transform="matrix(1.764085, -1.447105, 1.416514, 1.726793, 15.309366, 25.648118)" fill="none" stroke-linejoin="miter" d="M 0.499661 0.000420163 L 5.052775 -0.000164804 " stroke="#ffffff" stroke-width="1" stroke-opacity="1" stroke-miterlimit="4"/></g><path stroke-linecap="round" transform="matrix(-0.320991, -1.430491, 1.452843, -0.326007, 18.138206, 22.920122)" fill="none" stroke-linejoin="miter" d="M 0.501337 -0.000494924 L 5.599597 -0.000646906 " stroke="#ffffff" stroke-width="1" stroke-opacity="1" stroke-miterlimit="4"/><g clip-path="url(#id5)"><path stroke-linecap="round" transform="matrix(-2.173661, 0.0742567, -0.076255, -2.232154, 22.564498, 6.561897)" fill="none" stroke-linejoin="miter" d="M 0.500486 0.00062974 L 5.663498 0.000887737 " stroke="#ffffff" stroke-width="1" stroke-opacity="1" stroke-miterlimit="4"/></g><g clip-path="url(#id6)"><path stroke-linecap="round" transform="matrix(-0.509201, -2.222636, 2.177054, -0.498758, 24.353326, 18.052192)" fill="none" stroke-linejoin="miter" d="M 0.499877 -0.000519781 L 4.724585 0.000760824 " stroke="#ffffff" stroke-width="1" stroke-opacity="1" stroke-miterlimit="4"/></g><path stroke-linecap="round" transform="matrix(-0.370329, 1.382088, -1.438235, -0.385374, 18.142868, 6.87533)" fill="none" stroke-linejoin="miter" d="M 0.500143 0.000430725 L 4.70858 0.00049074 " stroke="#ffffff" stroke-width="1" stroke-opacity="1" stroke-miterlimit="4"/></svg>

<svg xmlns="http://www.w3.org/2000/svg" width="40" viewBox="0 0 30 33.75" height="45" version="1.0">
  <defs>
    <clipPath id="a">
      <path d="M.11 0H23v33.5H.11Zm0 0"/>
    </clipPath>
    <clipPath id="b">
      <path d="M.11 4H25v20H.11Zm0 0"/>
    </clipPath>
    <clipPath id="c">
      <path d="M.11 8H29v25.5H.11Zm0 0"/>
    </clipPath>
    <clipPath id="d">
      <path d="M3 5h26.89v28.5H3Zm0 0"/>
    </clipPath>
    <clipPath id="e">
      <path d="M.11 0h29.78v20H.11Zm0 0"/>
    </clipPath>
    <clipPath id="f">
      <path d="M9 0h20.89v30H9Zm0 0"/>
    </clipPath>
  </defs>
  <g clip-path="url(#a)">
    <path stroke-linecap="round" transform="matrix(.65007 -2.17558 2.13996 .63943 5.462 21.854)" fill="none" d="M.5 0h5.888" stroke="#fff"/>
  </g>
  <g clip-path="url(#b)">
    <path stroke-linecap="round" transform="matrix(-1.49628 -.26765 .26218 -1.4657 17.011 14.735)" fill="none" d="M.5 0h5.368" stroke="#fff"/>
  </g>
  <g clip-path="url(#c)">
    <path stroke-linecap="round" transform="matrix(-2.03041 -.83426 .84883 -2.06587 16.893 25.371)" fill="none" d="M.5 0h4.767" stroke="#fff"/>
  </g>
  <g clip-path="url(#d)">
    <path stroke-linecap="round" transform="matrix(1.76408 -1.4471 1.41651 1.7268 15.31 25.648)" fill="none" d="M.5 0h4.553" stroke="#fff"/>
  </g>
  <path stroke-linecap="round" transform="matrix(-.321 -1.4305 1.45284 -.326 18.138 22.92)" fill="none" d="M.501 0H5.6" stroke="#fff"/>
  <g clip-path="url(#e)">
    <path stroke-linecap="round" transform="matrix(-2.17366 .07426 -.07626 -2.23215 22.564 6.562)" fill="none" d="M.5 0h5.163" stroke="#fff"/>
  </g>
  <g clip-path="url(#f)">
    <path stroke-linecap="round" transform="matrix(-.5092 -2.22264 2.17705 -.49876 24.353 18.052)" fill="none" d="M.5 0h4.225" stroke="#fff"/>
  </g>
  <path stroke-linecap="round" transform="matrix(-.37033 1.38209 -1.43823 -.38537 18.143 6.875)" fill="none" d="M.5 0h4.21" stroke="#fff"/>
</svg>
